packages/dnb-ui-lib/assets/icons/lightbulb_medium.svg

<svg width="24" height="24" viewBox="0 0 24 24" fill="none" xmlns="http://www.w3.org/2000/svg">
<path d="M12.75 0.75C12.75 0.335786 12.4142 0 12 0C11.5858 0 11.25 0.335786 11.25 0.75H12.75ZM11.25 2.25C11.25 2.66421 11.5858 3 12 3C12.4142 3 12.75 2.66421 12.75 2.25H11.25ZM1.5 10.5C1.08579 10.5 0.75 10.8358 0.75 11.25C0.75 11.6642 1.08579 12 1.5 12V10.5ZM3 12C3.41421 12 3.75 11.6642 3.75 11.25C3.75 10.8358 3.41421 10.5 3 10.5V12ZM4.26965 3.20921C3.97098 2.92221 3.4962 2.93167 3.20921 3.23035C2.92221 3.52902 2.93167 4.0038 3.23035 4.29079L4.26965 3.20921ZM4.33035 5.3478C4.62902 5.63479 5.1038 5.62533 5.39079 5.32665C5.67779 5.02798 5.66833 4.5532 5.36965 4.26621L4.33035 5.3478ZM22.5 12C22.9142 12 23.25 11.6642 23.25 11.25C23.25 10.8358 22.9142 10.5 22.5 10.5V12ZM21 10.5C20.5858 10.5 20.25 10.8358 20.25 11.25C20.25 11.6642 20.5858 12 21 12V10.5ZM20.7697 4.29079C21.0683 4.0038 21.0778 3.52902 20.7908 3.23035C20.5038 2.93167 20.029 2.92221 19.7303 3.20921L20.7697 4.29079ZM18.6303 4.26621C18.3317 4.5532 18.3222 5.02798 18.6092 5.32665C18.8962 5.62533 19.371 5.63479 19.6697 5.3478L18.6303 4.26621ZM14.3222 17.5899L14.0642 16.8857L14.3222 17.5899ZM9.67782 17.5899L9.93584 16.8857L9.67782 17.5899ZM10.5 20.25C10.0858 20.25 9.75 20.5858 9.75 21C9.75 21.4142 10.0858 21.75 10.5 21.75V20.25ZM13.5 21.75C13.9142 21.75 14.25 21.4142 14.25 21C14.25 20.5858 13.9142 20.25 13.5 20.25V21.75ZM11.5 22.5C11.0858 22.5 10.75 22.8358 10.75 23.25C10.75 23.6642 11.0858 24 11.5 24V22.5ZM12.5 24C12.9142 24 13.25 23.6642 13.25 23.25C13.25 22.8358 12.9142 22.5 12.5 22.5V24ZM11.25 0.75V2.25H12.75V0.75H11.25ZM1.5 12H3V10.5H1.5V12ZM3.23035 4.29079L4.33035 5.3478L5.36965 4.26621L4.26965 3.20921L3.23035 4.29079ZM22.5 10.5H21V12H22.5V10.5ZM19.7303 3.20921L18.6303 4.26621L19.6697 5.3478L20.7697 4.29079L19.7303 3.20921ZM6 11.25C6 7.93629 8.68629 5.25 12 5.25V3.75C7.85786 3.75 4.5 7.10786 4.5 11.25H6ZM12 5.25C15.3137 5.25 18 7.93629 18 11.25H19.5C19.5 7.10786 16.1421 3.75 12 3.75V5.25ZM9.93584 16.8857C7.63792 16.0438 6 13.8372 6 11.25H4.5C4.5 14.4867 6.54991 17.2427 9.41981 18.2942L9.93584 16.8857ZM18 11.25C18 13.8372 16.3621 16.0438 14.0642 16.8857L14.5802 18.2942C17.4501 17.2427 19.5 14.4867 19.5 11.25H18ZM13.5388 17.75H10.4612V19.25H13.5388V17.75ZM13.25 18.0388C13.25 17.8793 13.3793 17.75 13.5388 17.75V19.25C14.2077 19.25 14.75 18.7077 14.75 18.0388H13.25ZM9.25 18.0388C9.25 18.7077 9.79229 19.25 10.4612 19.25V17.75C10.6207 17.75 10.75 17.8793 10.75 18.0388H9.25ZM14.0642 16.8857C13.6 17.0558 13.25 17.4999 13.25 18.0388H14.75C14.75 18.1733 14.6647 18.2632 14.5802 18.2942L14.0642 16.8857ZM9.41981 18.2942C9.33532 18.2632 9.25 18.1733 9.25 18.0388H10.75C10.75 17.4999 10.4 17.0558 9.93584 16.8857L9.41981 18.2942ZM10.5 21.75H13.5V20.25H10.5V21.75ZM11.5 24H12.5V22.5H11.5V24Z" fill="black"/>
</svg>

<svg width="24" height="24" viewBox="0 0 24 24" fill="none" xmlns="http://www.w3.org/2000/svg"><path d="M12.75.75a.75.75 0 00-1.5 0h1.5zm-1.5 1.5a.75.75 0 001.5 0h-1.5zM1.5 10.5a.75.75 0 000 1.5v-1.5zM3 12a.75.75 0 000-1.5V12zm1.27-8.79a.75.75 0 10-1.04 1.08l1.04-1.08zm.06 2.138a.75.75 0 101.04-1.082L4.33 5.348zM22.5 12a.75.75 0 000-1.5V12zM21 10.5a.75.75 0 000 1.5v-1.5zm-.23-6.21a.75.75 0 00-1.04-1.08l1.04 1.08zm-2.14-.024a.75.75 0 001.04 1.082l-1.04-1.082zM14.322 17.59l-.258-.704.258.704zm-4.644 0l.258-.704-.258.704zm.822 2.66a.75.75 0 000 1.5v-1.5zm3 1.5a.75.75 0 000-1.5v1.5zm-2 .75a.75.75 0 000 1.5v-1.5zm1 1.5a.75.75 0 000-1.5V24zM11.25.75v1.5h1.5V.75h-1.5zM1.5 12H3v-1.5H1.5V12zm1.73-7.71l1.1 1.058 1.04-1.082-1.1-1.057-1.04 1.082zM22.5 10.5H21V12h1.5v-1.5zm-2.77-7.29l-1.1 1.056 1.04 1.082 1.1-1.057-1.04-1.082zM6 11.25a6 6 0 016-6v-1.5a7.5 7.5 0 00-7.5 7.5H6zm6-6a6 6 0 016 6h1.5a7.5 7.5 0 00-7.5-7.5v1.5zM9.936 16.886A6.003 6.003 0 016 11.25H4.5a7.503 7.503 0 004.92 7.044l.516-1.408zM18 11.25a6.003 6.003 0 01-3.936 5.636l.516 1.408a7.503 7.503 0 004.92-7.044H18zm-4.461 6.5H10.46v1.5h3.078v-1.5zm-.289.289c0-.16.13-.289.289-.289v1.5a1.21 1.21 0 001.211-1.211h-1.5zm-4 0a1.21 1.21 0 001.211 1.211v-1.5c.16 0 .289.13.289.289h-1.5zm4.814-1.153c-.464.17-.814.614-.814 1.153h1.5a.268.268 0 01-.17.255l-.516-1.408zM9.42 18.294a.268.268 0 01-.17-.255h1.5c0-.54-.35-.983-.814-1.153l-.516 1.408zm1.08 3.456h3v-1.5h-3v1.5zm1 2.25h1v-1.5h-1V24z" fill="#000"/></svg>
